simple/helpdesk.svg

<svg viewBox="0 0 24 24" xmlns="http://www.w3.org/2000/svg"><path d="M12 10.71l6.12-5.31H12c-2.16 0-4.32.06-6.36.21 -.84.06-1.5.69-1.56 1.53 -.12 1.26-.18 2.85-.18 4.41v.87c0 1.59.06 3.15.18 4.41 .09.81.75 1.47 1.56 1.5l-.001-.001c4.23.3 8.48.3 12.72 0 .81-.03 1.5-.69 1.56-1.5 .09-1.2.15-2.67.18-4.17l3.9-3.36v3.36c0 1.59-.06 3.18-.18 4.47v0c-.23 2.75-2.44 4.92-5.19 5.1 -2.13.18-4.38.27-6.63.27s-4.5-.09-6.63-.24H5.36c-2.76-.18-4.97-2.35-5.19-5.1 -.12-1.35-.18-3.03-.18-4.71v-.87c0-1.68.06-3.36.18-4.74L.17 6.83C.39 4.07 2.6 1.9 5.36 1.73c2.13-.15 4.38-.24 6.63-.24h12v3.9l-12 10.41 -5.61-4.86 2.94-2.55Z"/></svg>

<svg role="img" viewBox="0 0 24 24" xmlns="http://www.w3.org/2000/svg"><title>HelpDesk</title><path d="M12 10.71l6.12-5.31H12c-2.16 0-4.32.06-6.36.21-.84.06-1.5.69-1.56 1.53-.12 1.26-.18 2.85-.18 4.41v.87c0 1.59.06 3.15.18 4.41.09.81.75 1.47 1.56 1.5a90 90 0 0012.72 0c.81-.03 1.5-.69 1.56-1.5.09-1.2.15-2.67.18-4.17L24 9.3V12.66c0 1.59-.06 3.18-.18 4.47a5.57 5.57 0 01-5.19 5.1c-2.13.18-4.38.27-6.63.27s-4.5-.09-6.63-.24a5.57 5.57 0 01-5.19-5.1C.06 15.81 0 14.13 0 12.45v-.87C0 9.9.06 8.22.18 6.84a5.57 5.57 0 015.19-5.1C7.5 1.59 9.75 1.5 12 1.5h12v3.9L12 15.81l-5.61-4.86L9.33 8.4z"/></svg>
